images/logo.svg

<svg width="68" height="20" viewBox="0 0 68 20" fill="none" xmlns="http://www.w3.org/2000/svg">
<path d="M10.7692 1.95652C11.3846 2.28261 12.1026 2.6087 12.7179 3.15217C12.9231 3.26087 13.0256 3.36957 13.1282 3.36957C13.4359 3.36957 13.641 2.82609 13.7436 1.84783H14.2564C14.1538 2.93478 14.1538 5 14.1538 7.93478H13.641C13.5385 6.73913 13.3333 5.76087 13.0256 5.1087C12.8205 4.45652 12.4103 3.91304 11.7949 3.36957C11.3846 2.93478 10.9744 2.71739 10.4615 2.5C9.94872 2.28261 9.4359 2.17391 8.92308 2.17391C7.28205 2.17391 6.15385 2.93478 5.33333 4.56522C4.51282 6.19565 4.20513 8.26087 4.20513 10.6522C4.20513 13.0435 4.61538 15.1087 5.4359 16.7391C6.15385 18.4783 7.38461 19.2391 9.02564 19.2391C9.53846 19.2391 10.0513 19.1304 10.6667 18.913C11.1795 18.6957 11.5897 18.3696 12 18.0435C12.6154 17.6087 13.0256 16.9565 13.2308 16.3043C13.4359 15.6522 13.641 14.5652 13.7436 13.2609H14.2564C14.2564 16.3043 14.2564 18.3696 14.359 19.5652H13.8462C13.8462 19.0217 13.7436 18.6957 13.641 18.4783C13.5385 18.2609 13.4359 18.1522 13.2308 18.1522C13.1282 18.1522 12.9231 18.2609 12.7179 18.3696C12 18.913 11.3846 19.3478 10.6667 19.5652C9.94872 19.7826 9.23077 20 8.30769 20C6.66667 20 5.23077 19.6739 3.89744 18.913C2.66667 18.1522 1.64103 17.1739 1.02564 15.7609C0.410256 14.3478 0 12.7174 0 10.8696C0 9.02174 0.307692 7.3913 1.02564 5.97826C1.74359 4.56522 2.76923 3.47826 4 2.71739C5.23077 1.95652 6.66667 1.52174 8.30769 1.52174C9.33333 1.52174 10.0513 1.63043 10.7692 1.95652Z" fill="#2D2829"/>
<path d="M18.2564 18.913C17.7436 18.3696 17.5385 17.6087 17.5385 16.7391C17.5385 15.9783 17.7436 15.3261 18.0513 14.8913C18.4615 14.3478 18.8718 14.0217 19.3846 13.8043C19.8974 13.587 20.6154 13.2609 21.4359 12.9348C22.2564 12.6087 22.9744 12.2826 23.3846 12.0652C23.7949 11.8478 24 11.413 24 10.9783V9.02174C24 8.36957 23.8974 7.82609 23.5897 7.3913C23.282 6.95652 22.7692 6.84783 22.1538 6.84783C21.4359 6.84783 20.8205 7.06522 20.4103 7.5C20.8205 7.71739 21.2308 7.93478 21.4359 8.26087C21.641 8.58696 21.8462 9.02174 21.8462 9.45652C21.8462 10 21.641 10.4348 21.3333 10.7609C20.9231 11.087 20.5128 11.3043 20 11.3043C19.4872 11.3043 18.9744 11.087 18.7692 10.7609C18.4615 10.4348 18.359 9.8913 18.359 9.34783C18.359 8.91304 18.4615 8.47826 18.6667 8.15217C18.8718 7.82609 19.1795 7.5 19.6923 7.28261C20.1026 7.06522 20.6154 6.84783 21.2308 6.63043C21.8462 6.52174 22.5641 6.41304 23.2821 6.41304C24.1026 6.41304 24.7179 6.52174 25.3333 6.63043C25.9487 6.84783 26.359 7.06522 26.7692 7.5C27.0769 7.82609 27.3846 8.36957 27.4872 8.80435C27.5897 9.23913 27.6923 10.1087 27.6923 10.9783V17.8261C27.6923 18.2609 27.6923 18.4783 27.7949 18.6957C27.8974 18.913 28 18.913 28.2051 18.913C28.4103 18.913 28.7179 18.8043 29.0256 18.4783L29.2308 18.913C28.5128 19.5652 27.6923 19.8913 26.6667 19.8913C25.8462 19.8913 25.2308 19.6739 24.8205 19.3478C24.5128 19.0217 24.3077 18.4783 24.3077 17.8261C23.4872 19.1304 22.359 19.8913 20.8205 19.8913C19.4872 19.6739 18.6667 19.4565 18.2564 18.913ZM23.8974 17.0652V11.9565C23.6923 12.2826 23.2821 12.6087 22.6667 13.0435C22.0513 13.4783 21.5385 13.913 21.2308 14.3478C20.9231 14.7826 20.7179 15.3261 20.7179 16.1957C20.7179 16.8478 20.8205 17.3913 21.1282 17.7174C21.4359 18.0435 21.7436 18.1522 22.1538 18.1522C22.8718 18.1522 23.3846 17.8261 23.8974 17.0652Z" fill="#2D2829"/>
<path d="M43.3846 18.587C43.5897 18.8043 43.7949 18.913 44 19.0217V19.5652C42.7692 19.4565 41.9487 19.4565 41.5385 19.4565C41.0256 19.4565 40 19.4565 38.4615 19.5652V19.0217C38.6667 19.0217 38.8718 19.0217 38.9744 18.913C39.0769 18.8043 39.1795 18.6957 39.1795 18.587C39.1795 18.4783 39.1795 18.3696 39.0769 18.2609L36.7179 13.8043C36.5128 13.4783 36.4103 13.3696 36.2051 13.2609C36 13.1522 35.7949 13.0435 35.5897 13.0435V17.3913C35.5897 18.0435 35.6923 18.587 35.8974 18.8043C36.1026 19.0217 36.5128 19.2391 37.0256 19.2391V19.5652C35.4872 19.4565 34.4615 19.4565 33.9487 19.4565C33.4359 19.4565 32.3077 19.4565 30.6667 19.5652V19.0217C31.1795 19.0217 31.5897 18.913 31.7949 18.587C32 18.3696 32.1026 17.8261 32.1026 17.1739V2.93478C32.1026 2.17391 32 1.63043 31.7949 1.30435C31.5897 0.978261 31.1795 0.76087 30.6667 0.76087V0.217391C31.1795 0.217391 31.6923 0.326087 32.1026 0.326087C33.4359 0.326087 34.6667 0.217391 35.5897 0V12.5C35.8974 12.5 36.2051 12.3913 36.4103 12.2826C36.6154 12.1739 36.8205 12.0652 37.0256 11.8478L38.7692 10C39.282 9.45652 39.5897 8.91304 39.5897 8.47826C39.5897 8.04348 39.3846 7.82609 39.0769 7.6087C38.7692 7.3913 38.2564 7.28261 37.7436 7.17391V6.63043C38.5641 6.63043 39.4872 6.73913 40.5128 6.73913C41.8461 6.73913 42.7692 6.73913 43.2821 6.63043V7.17391C42.359 7.3913 41.3333 8.04348 40.3077 9.13043L38.7692 10.7609L42.7692 17.8261C42.9744 18.1522 43.1795 18.3696 43.3846 18.587Z" fill="#2D2829"/>
<path d="M55.2821 15.8696L55.6923 15.9783C55.3846 17.0652 54.7692 17.9348 54.0513 18.6957C53.2308 19.4565 52.2051 19.7826 50.9744 19.7826C49.3333 19.7826 48 19.2391 46.9744 18.0435C45.9487 16.9565 45.5385 15.2174 45.5385 13.0435C45.5385 10.7609 46.0513 9.02174 47.0769 7.93478C48.1026 6.84783 49.5385 6.19565 51.282 6.19565C54.2564 6.19565 55.6923 8.04348 55.6923 11.7391H49.0256C49.0256 11.9565 49.0256 12.3913 49.0256 12.9348C49.0256 14.0217 49.1282 15 49.4359 15.6522C49.7436 16.413 50.1538 16.9565 50.5641 17.2826C50.9744 17.6087 51.4872 17.8261 52.1026 17.8261C53.4359 17.8261 54.4615 17.1739 55.2821 15.8696ZM49.7436 7.93478C49.3333 8.69565 49.1282 9.78261 49.0256 11.413H52.7179C52.7179 10.1087 52.6154 9.02174 52.3077 8.15217C52 7.28261 51.5897 6.84783 51.0769 6.84783C50.5641 6.73913 50.0513 7.17391 49.7436 7.93478Z" fill="#2D2829"/>
<path d="M64.6154 6.52174C65.1282 6.63043 65.5385 6.84783 65.7436 7.06522C65.9487 7.17391 66.0513 7.28261 66.1538 7.28261C66.2564 7.28261 66.4615 7.17391 66.5641 7.06522C66.6667 6.84783 66.6667 6.63043 66.7692 6.30435H67.282C67.1795 7.17391 67.1795 8.58696 67.1795 10.6522H66.6667C66.5641 9.56522 66.2564 8.58696 65.7436 7.93478C65.2308 7.17391 64.6154 6.84783 63.6923 6.84783C63.1795 6.84783 62.8718 6.95652 62.5641 7.28261C62.2564 7.6087 62.1538 7.93478 62.1538 8.47826C62.1538 9.02174 62.359 9.56522 62.6667 9.8913C63.0769 10.3261 63.5897 10.7609 64.4103 11.413L65.1282 11.9565C66.0513 12.7174 66.7692 13.3696 67.282 14.0217C67.6923 14.6739 68 15.3261 68 16.3043C68 17.0652 67.7949 17.7174 67.3846 18.2609C66.9743 18.8043 66.4615 19.2391 65.7436 19.5652C65.0256 19.8913 64.3077 20 63.4872 20C62.6667 20 61.8461 19.7826 61.2308 19.4565C60.7179 19.2391 60.4103 19.0217 60.1026 18.913C59.8974 18.913 59.7949 18.913 59.6923 19.0217C59.5897 19.1304 59.4872 19.4565 59.3846 19.7826H58.8718C58.9744 18.8043 58.9744 17.1739 58.9744 14.7826H59.4872C59.7949 17.8261 60.8205 19.3478 62.6667 19.3478C63.0769 19.3478 63.4872 19.2391 63.7949 18.913C64.1026 18.587 64.3077 18.1522 64.3077 17.6087C64.3077 17.1739 64.2051 16.7391 64 16.3043C63.7949 15.9783 63.5897 15.6522 63.282 15.3261C62.9744 15 62.5641 14.6739 61.9487 14.1304C61.2308 13.4783 60.7179 13.0435 60.3077 12.7174C59.8974 12.3913 59.5897 11.9565 59.3846 11.413C59.1795 10.8696 58.9744 10.3261 58.9744 9.78261C58.9744 8.69565 59.3846 7.82609 60.1026 7.28261C60.8205 6.73913 61.8462 6.30435 62.9744 6.30435C63.4872 6.30435 64.1026 6.30435 64.6154 6.52174Z" fill="#2D2829"/>
</svg>

<svg xmlns="http://www.w3.org/2000/svg" width="68" height="20" fill="none"><path fill="#2D2829" d="M10.77 1.957c.615.326 1.333.652 1.948 1.195.205.109.308.218.41.218.308 0 .513-.544.616-1.522h.512c-.102 1.087-.102 3.152-.102 6.087h-.513c-.102-1.196-.308-2.174-.615-2.826-.206-.652-.616-1.196-1.231-1.74-.41-.434-.82-.652-1.334-.869a3.914 3.914 0 0 0-1.538-.326c-1.641 0-2.77.76-3.59 2.391-.82 1.63-1.128 3.696-1.128 6.087 0 2.392.41 4.457 1.23 6.087.719 1.74 1.95 2.5 3.59 2.5.513 0 1.026-.109 1.642-.326.513-.217.923-.543 1.333-.87.615-.434 1.026-1.087 1.23-1.739.206-.652.411-1.739.514-3.043h.512c0 3.043 0 5.109.103 6.304h-.513c0-.543-.102-.87-.205-1.087-.102-.217-.205-.326-.41-.326-.103 0-.308.109-.513.218-.718.543-1.333.978-2.051 1.195-.718.218-1.436.435-2.36.435-1.64 0-3.076-.326-4.41-1.087-1.23-.76-2.256-1.74-2.871-3.152A12.146 12.146 0 0 1 0 10.87C0 9.022.308 7.39 1.026 5.978A8.084 8.084 0 0 1 4 2.718c1.23-.761 2.667-1.196 4.308-1.196 1.025 0 1.743.108 2.461.435ZM18.256 18.913c-.512-.543-.718-1.304-.718-2.174 0-.76.206-1.413.513-1.848.41-.543.82-.87 1.334-1.087.512-.217 1.23-.543 2.05-.87.821-.325 1.54-.651 1.95-.869.41-.217.615-.652.615-1.087V9.022c0-.652-.103-1.196-.41-1.63-.308-.435-.82-.544-1.436-.544-.718 0-1.334.217-1.744.652.41.217.82.435 1.026.76.205.327.41.762.41 1.197 0 .543-.205.978-.513 1.304-.41.326-.82.543-1.333.543s-1.026-.217-1.23-.543c-.308-.326-.411-.87-.411-1.413 0-.435.102-.87.308-1.196a2.174 2.174 0 0 1 1.025-.87c.41-.217.923-.434 1.539-.652.615-.108 1.333-.217 2.051-.217.82 0 1.436.109 2.051.217.616.218 1.026.435 1.436.87.308.326.616.87.718 1.304.103.435.205 1.305.205 2.174v6.848c0 .435 0 .652.103.87.102.217.205.217.41.217s.513-.109.82-.435l.206.435c-.718.652-1.539.978-2.564.978-.82 0-1.436-.217-1.847-.543-.307-.326-.512-.87-.512-1.522-.82 1.304-1.949 2.065-3.488 2.065-1.333-.217-2.153-.434-2.564-.978Zm5.641-1.848v-5.109c-.205.327-.615.653-1.23 1.088-.616.434-1.129.869-1.436 1.304-.308.435-.513.978-.513 1.848 0 .652.102 1.195.41 1.521.308.327.616.435 1.026.435.718 0 1.23-.326 1.743-1.087ZM43.385 18.587c.205.217.41.326.615.435v.543c-1.23-.109-2.051-.109-2.462-.109-.512 0-1.538 0-3.076.11v-.544c.205 0 .41 0 .512-.109.103-.109.206-.217.206-.326 0-.109 0-.217-.103-.326l-2.36-4.457c-.204-.326-.307-.434-.512-.543-.205-.109-.41-.217-.615-.217v4.347c0 .653.102 1.196.307 1.413.206.218.616.435 1.129.435v.326c-1.539-.109-2.565-.109-3.077-.109-.513 0-1.641 0-3.282.11v-.544c.512 0 .923-.109 1.128-.435.205-.217.308-.76.308-1.413V2.934c0-.76-.103-1.304-.308-1.63-.205-.326-.616-.543-1.128-.543V.217c.512 0 1.025.11 1.436.11 1.333 0 2.564-.11 3.487-.327v12.5c.307 0 .615-.109.82-.217.205-.11.41-.218.616-.435L38.769 10c.513-.543.82-1.087.82-1.522 0-.435-.204-.652-.512-.87-.308-.217-.82-.325-1.333-.434V6.63c.82 0 1.743.11 2.769.11 1.333 0 2.256 0 2.77-.11v.544c-.924.217-1.95.87-2.975 1.956l-1.539 1.63 4 7.066c.205.326.41.544.616.761ZM55.282 15.87l.41.108c-.307 1.087-.923 1.957-1.64 2.718-.821.76-1.847 1.087-3.078 1.087-1.64 0-2.974-.544-4-1.74-1.025-1.087-1.435-2.826-1.435-5 0-2.282.512-4.021 1.538-5.108 1.026-1.087 2.462-1.74 4.205-1.74 2.974 0 4.41 1.848 4.41 5.544h-6.666v1.196c0 1.087.102 2.065.41 2.717.308.761.718 1.304 1.128 1.63.41.327.923.544 1.539.544 1.333 0 2.358-.652 3.18-1.956Zm-5.538-7.935c-.41.76-.616 1.848-.718 3.478h3.692c0-1.304-.103-2.391-.41-3.26-.308-.87-.718-1.305-1.231-1.305-.513-.109-1.026.326-1.333 1.087ZM64.615 6.522c.513.108.924.326 1.129.543.205.109.307.218.41.218.102 0 .308-.11.41-.218.103-.217.103-.435.205-.76h.513c-.102.869-.102 2.282-.102 4.347h-.513c-.103-1.087-.41-2.065-.923-2.717-.513-.761-1.129-1.087-2.052-1.087-.513 0-.82.109-1.128.435-.308.326-.41.652-.41 1.195 0 .544.205 1.087.513 1.413.41.435.923.87 1.743 1.522l.718.543c.923.761 1.641 1.414 2.154 2.066.41.652.718 1.304.718 2.282 0 .761-.205 1.413-.615 1.957-.41.543-.924.978-1.641 1.304-.718.326-1.436.435-2.257.435a4.98 4.98 0 0 1-2.256-.544c-.513-.217-.82-.434-1.128-.543-.206 0-.308 0-.41.109-.103.108-.206.434-.308.76h-.513c.102-.978.102-2.608.102-5h.513c.308 3.044 1.334 4.566 3.18 4.566.41 0 .82-.109 1.128-.435.308-.326.513-.76.513-1.304 0-.435-.103-.87-.308-1.305-.205-.326-.41-.652-.718-.978-.308-.326-.718-.652-1.333-1.196a32.99 32.99 0 0 0-1.641-1.413c-.41-.326-.718-.76-.923-1.304-.206-.543-.41-1.087-.41-1.63 0-1.087.41-1.957 1.128-2.5.718-.544 1.743-.979 2.871-.979.513 0 1.129 0 1.641.218Z"/></svg>
